X:1
T:By and By
T:By and By
T:Bentley DeForest Ackley
T:Fanny Crosby, 1915
T:Public Domain Courtesy of the Cyber Hymnal™
T:Public Domain Courtesy of the Cyber Hymnal™
C:Bentley DeForest Ackley
Z:Public Domain
Z:Courtesy of the Cyber Hymnal™
%%score ( 1 2 ) 3
L:1/8
Q:1/4=100
M:4/4
K:Bb
V:1 treble 
V:2 treble 
V:3 bass 
V:1
 [B,D][CE] | [DF][DF][EG][CA] [DB][Fd] [DB]>[EG] | F4- [DF]2 [B,D][CE] | %3
w: 1.~We shall|all clasp hands in glo- ry by and|by; We shall tell|
w: 2.~We shall|wake no more to sor- row by and|by; In the smile|
w: 3.~We shall|cross the si- lent ri- ver by and|by; We shall rest|
w: 4.~We shall|join the an- gel chor- us by and|by, With the dear|
 [DF][DF][EG][CA] [DB][Fd] [=Ec]>[EG] | c4- [_Ec]2 !fermata![Fd]>[Ec] | %5
w: * re- demp- tion’s sto- ry by and|by; When the voyage|
w: * of end- less mor- row by and|by; Where our faith|
w: * and dwell to- ge- ther by and|by; Palms of vic-|
w: * ones gone be- fore us by and|by; In that realm|
 [DB][DF][^C=E][DF] [_EG]2 [Ge][Fd] | [Fd][Ec][DB][Fc] [Fd]2 [B,D][CE] | %7
w: * of life is past We shall|reach the port at last, And our|
w: * is lost in sight, Where the|Sav- ior is the light, We shall|
w: * tory we shall bear In that|cloud- less re- gion fair, And we’ll|
w: * of per- fect day, Where the|sil- ver fount- ains play, God will|
 [DF][DB][Ge][Fd] [=EG]2 [_EA]>[EF] | [DB]6 ||"^Refrain" A>B | (z2 [DB])[FA] x6 | %11
w: an- chor safe- ly cast by and|by.|||
w: walk with Him in white by and|by.|By and|* by,|
w: know each o- ther there by and|by.|||
w: wipe all tears a- way by and|by.|||
 (z2 [DB])[FA] x6 | [EG][EG][FG][FG] [=Ed][Ec] [EG]>[Ed] | c6 !fermata![Fd]>[Ec] | %14
w: |||
w: * by|and by, We shall all clasp hands in|glo- ry by|
w: |||
w: |||
 [DB][DF][^C=E][DF] [_EG]2 [Ge][Fd] | [Fd][Ec][DB][Fc] [Fd]2 [B,D][CE] | %16
w: ||
w: and by. We shall see our Sav-|ior’s face, And a- dore His won-|
w: ||
w: ||
 [DF][DB][Ge][Fd] [=EG]2 [_EA]>[EF] | [DB]6 |] %18
w: ||
w: drous grace, We shall feel His fond|em-|
w: ||
w: ||
V:2
 x2 | x8 | D2 E>E x4 | x8 | F2 =E>E x4 | x8 | x8 | x8 | x6 || x2 | (c6 E>E E2) | (B6 D>E D2) | x8 | %13
 (F2 =E>_E E2) x2 | x8 | x8 | x8 | x6 |] %18
V:3
 [B,,F,][B,,F,] | [B,,B,][B,,B,][B,,B,][B,,B,] [B,,B,][B,,B,] [B,,F,]>[B,,A,] | %2
w: ~ ~|~ ~ ~ ~ ~ ~ ~ ~|
 [B,,B,]2 [F,A,]>[F,A,] [B,,B,]2 [B,,F,][B,,F,] | %3
w: ~ ~ ~ ~ ~ ~|
 [B,,B,][B,,B,][B,,B,][B,,B,] [B,,B,][B,,B,] [C,G,]>[C,B,] | %4
w: ~ ~ ~ ~ ~ ~ ~ ~|
 [F,A,]2 [G,B,]>[G,B,] [F,A,]2 !fermata![F,A,]>[F,A,] | %5
w: ~ ~ ~ ~ ~ ~|
 [B,,B,][B,,B,][B,,B,][B,,B,] [E,B,]2 [E,B,][F,B,] | %6
w: ~ ~ ~ ~ ~ ~ ~|
 [F,A,][F,A,][G,B,][F,A,] [B,,B,]2 [B,,F,][B,,F,] | %7
w: ~ ~ ~ ~ ~ ~ ~|
 [B,,B,][B,,B,][B,,B,][B,,B,] [B,,B,]2 [F,C]>[F,A,] | [B,,F,B,]6 || z2 | %10
w: ~ ~ ~ ~ ~ ~ ~|~||
 z2 [F,A,]>[F,A,] [F,A,]2 z2 x2 | z2 [B,,F,]>[B,,G,] [B,,F,]2 [B,,F,][B,,B,] x2 | %12
w: By and by,|by and by * *|
 [E,B,][E,B,][D,=B,][D,B,] [C,C][C,G,] [C,C]>[C,B,] | [F,A,]2 [G,B,]>[G,B,] [F,A,]2 [F,A,]>[F,A,] | %14
w: ||
 [B,,B,][B,,B,][B,,B,][B,,B,] [E,B,]2 [E,B,][F,B,] | %15
w: |
 [F,A,][F,A,][G,B,][F,A,] [B,,B,]2 [B,,F,][B,,F,] | %16
w: |
 [B,,B,][B,,B,][B,,B,][B,,B,] [B,,B,]2 [F,C]>[F,A,] | [B,,F,B,]6 |] %18
w: ||

